X: 34591
T: Ritual, The
R: reel
M: 4/4
K: Eminor
|:G3A BEFG-|~G2cB BEGA|~G3A BEFG|B~d3 cBBE|
G3A BEFG-|~G2cB BEFG-|~G2cB dcBG|1 ABGE G2DE:|2 ABGE GABd||
|:g3f edBA|G2cB BABd|gaf ~g3 de|g~d3 cB (3Bcd|
g3f edBA|G2cB BEFG-|~G2cB dcBG|1 ABGE GABd:|2 ABGE G2DE||

